X:1
T:String Quartet No. 2
T:F. J. Haydn　Op.1 
T:String Quartet No. 2
T:3rd movement
C:F. J. Haydn　Op.1
%%score [ 1 2 3 4 ]
L:1/8
Q:1/4=40
M:4/4
K:Bb
V:1 treble nm="Violin I"
V:2 treble nm="Violin II"
V:3 alto nm="Viola"
V:4 bass nm="Cello"
V:1
!p!"^Adagio" b2 (Bd) (f3/2(3g/4f/4e/4) d z | (g G2) (e/c/){B} (A3/2(3c/4B/4A/4) B2 | %2
 d'2{c'} b{a}g{f} (=e>f) g z | c'2{b} a{g}f{e} (d>e) f z | %4
 (=e/g/) z/ (g/4e/4) (b/g/) z/ (g/4e/4) (f/c/)c/c/ c/c/c/c/ | %5
 (c/f/) z/ (a/4f/4) (c'/a/) z/ (a/4f/4) (g/c/)c/c/ c/c/c/c/ | %6
 (c/g/) z/ (g/4=e/4) (b/g/) z/ (g/4e/4) f4- | f2- (f/a/c'/f'/) (Td'3/2c'/4b/4) (aTg) | %8
 f z z/ =E/ z/ B/ (A/F/)F/F/ z/ E/ z/ b/ | z/ a/ z/ f/ z/ g/ z/ =e/ f2 z2 :: %10
!f!"^A" B>F B/>F/d/>A/ B>F B z |!p! _a4 (g>a) (b_e'/b/) | %12
 (c'3/2b/4_a/4) (g(3a/f/d/)!f! (eB/)B,/ E/>B,/G/>D/ | E>G _A/>B/c/>d/!p!{/e} g4 | %14
 (^f>g) (=a3/2b/4c'/4) (b/4a/4g/4a/4) g2 =f |{f} =e>_d' (d'c'/b/ _a/g/f/>)c'/ (c'b/>)a/ | %16
 (Tg/f/)_e!f! [EBg] z/!p! (g/4b/4) (b/f/) z/ (b/4=d/4) (f/e/) z/ (c'/4e/4) | %17
 (e/d/) z/ (b/4f/4) g/e/c/B/ F2 z2 |"^B" b2 (Bd) (f3/2(3g/4f/4e/4) d2 | %19
 (g G2) (e/c/){B} (A3/2(3c/4B/4A/4) B2 | (A/c/) z/ (c/4A/4) (e/c/) z/ c/4A/4 (B/F/)F/F/ F/F/F/F/ | %21
 (F/B/) z/ d/4B/4 (f/d/) z/ (d/4B/4) (c/F/)F/F/ F/F/F/F/ | %22
 (F/c/) z/ (c/4A/4) (e/c/) z/ (c'/4a/4) b4- | %23
 b2- (b/4a/4b/4c'/4) (d'/4b/4a/4b/4) Tg3/2(f/4e/4) dTc | %24
 B z z/ c/ z/ E/ (D/B,/).B,/.B,/ z/ A/ z/ e/ | z/ d/ z/ B/ z/ c/ z/ A/ B2 z2 :| %26
V:2
 z/!p! .F/.F/.F/ z/ .F/.F/.F/ z/ .A/.A/.A/ z/ .B/.B/.B/ | z/ G/G/G/ z/ G/G/G/ z/ E/E/E/ z/ D/D/D/ | %2
 z/ B/B/B/ z/ B/B/B/ z/ B/B/B/ z/ B/B/B/ | z/ A/A/A/ z/ c/c/c/ z/ B/B/B/ z/ B/B/B/ | %4
 z/ B/B/B/ z/ B/B/B/ z/ (A/B/A/ B/A/B/A/) | z/ A/A/A/ z/ A/A/A/ z/ (G/A/G/ A/G/A/G/) | %6
 z/ B/B/B/ z/ B/B/B/ z/ (A/d/c/ d/c/B/A/) | z/ A/A/A/ z/ A/A/A/ z/ G/G/G/ z/ F/ z/ =E/ | %8
 F z z/ G,/ z/ =E/ (F/A,/)A,/A,/ z/ G,/ z/ =e/ | z/ f/ z/ A/ z/ B/ z/ G/ F2 z2 :: %10
!f! B>F B/>F/d/>A/ B>F B/>F/D/>B,/ | _A,/!p!F/F/F/ z/ F/F/F/ z/ E/E/E/ z/ e/e/e/ | %12
 z/ e/e/e/ z/ e/ z/ d/!f! ez/B,/ E/>B,/G/>D/ | E>G _A/>B/c/>d/ e/!p!c/c/c/ z/ c/c/c/ | %14
 z/ d/d/d/ z/ d/d/d/ z/ B/B/B/ z/ B/B/B/ | z/ B/B/B/ z/ B/B/G/ z/ _A/A/A/ z/ A/A/F/ | %16
 z/ G/G/G/ z/ B/B/B/ z/ B/B/B/ z/ B/ z/ =A/ | z/ B/B/B/ z/ B/B/B/ A/F/F/F/ F/E/D/C/ | %18
 B,/F/F/F/ z/ F/F/F/ z/ A/A/A/ z/ B/B/B/ | z/ G/G/G/ z/ G/G/G/ z/ E/E/E/ z/ D/D/D/ | %20
 z/ E/E/E/ z/ E/E/E/ z/ (D/E/D/ E/D/E/D/) | z/ D/D/D/ z/ D/D/D/ z/ (C/D/C/ D/C/D/C/) | %22
 z/ E/E/E/ z/ e/e/e/ z/ (d/g/f/ g/f/e/d/) | z/ d/d/d/ z/ d/d/d/ z/ c/c/c/ z/ B/ z/ A/ | %24
 B z z/ E/ z/ A,/ B,/B,/B,/B,/ z/ C/ z/ A/ | z/ B/ z/ D/ z/ E/ z/ C/ B,2 z2 :| %26
V:3
 z/!p! .D/.D/.D/ z/ .D/.D/.D/ z/ .C/.C/.C/ z/ .D/.D/.D/ | %1
 z/ B,/B,/B,/ z/ E/E/E/ z/ C/C/C/ z/ B,/B,/B,/ | z/ F/F/F/ z/ G/G/G/ z/ G/G/G/ z/ =E/E/E/ | %3
 z/ F/F/F/ z/ _E/E/E/ z/ D/D/D/ z/ D/D/D/ | z/ =E/E/E/ z/ E/E/E/ z/ (F/G/F/ G/F/G/F/) | %5
 z/ F/F/F/ z/ F/F/F/ z/ (=E/F/E/ F/E/F/E/) | z/ =E/E/E/ z/ E/E/E/ z/ (F/B/A/ B/A/G/F/) | %7
 z/ F/F/F/ z/ F/F/F/ z/ F/F/F/ z/ A,/ z/ B,/ | A,2 cC F2 cC | FdBc FC F,2 :: %10
!f! B>F B/>F/d/>A/ B>F B/>F/D/>B,/ | _A,/!p!B,/B,/B,/ z/ B,/B,/B,/ z/ G,/G,/G,/ z/ G/G/G/ | %12
 z/ F/F/F/ z/ G/ z/ F/!f! Ez/B,/ E/>B,/G/>D/ | E>G _A/>B/c/>d/ e/G/G/G/ z/ G/G/G/ | %14
 z/ =A/A/A/ z/ ^F/F/A/ z/ D/D/D/ z/ _D/D/D/ | z/ C/C/C/ z/ C/C/C/ z/ C/C/C/ z/ B,/B,/B,/ | %16
 z/ B,/B,/B,/ z/ G/G/G/ z/ =F/F/F/ z/ E/ z/ E/ | z/ D/D/D/ z/ C/C/C/ C/A,/A,/A,/ A,/E/D/C/ | %18
 B,/D/D/D/ z/ D/D/D/ z/ C/C/C/ z/ D/D/D/ | z/ B,/B,/B,/ z/ E/E/E/ z/ C/C/C/ z/ B,/B,/B,/ | %20
 z/ A,/A,/A,/ z/ A,/A,/A,/ z/ (B,/C/B,/ C/B,/C/B,/) | %21
 z/ B,/B,/B,/ z/ B,/B,/B,/ z/ (A,/B,/A,/ B,/A,/B,/A,/) | %22
 z/ A,/A,/A,/ z/ A/A/A/ z/ (B/e/d/ e/d/c/B/) | z/ B/B/B/ z/ B/B/B/ z/ B/B/B/ z/ D/ z/ E/ | %24
 D2 F,F (B,/D,/).D,/.D,/ FF, | B,GEF B,F, B,2 :| %26
V:4
!p! B, z B,, z F, z B,, z | E, z E, z F, z B,, z | B,, z B,, z C, z C, z | F, z F, z B, z B,, z | %4
 C, z C, z C, z C, z | C, z C, z C, z C, z | C, z C, z F, z F, z | D, z A,, z B,, z C,C, | %8
 F,2 CC, F,2 CC, | F,DB,C F,C, F,,2 ::!f! B,>F, B,/>F,/D/>A,/ B,>F, B,/>F,/D,/>B,,/ | %11
!p! D, z D, z E, z E, z | _A, z B,B,,!f! E,z/B,,/ E,/>B,,/G,/>D,/ | %13
 E,>G, _A,/>B,/C/>D/ E z!p! E, z | D, z D, z G, z B, z | C z =E, z F, z D, z | %16
 _E, z!f! E z!p! D z CF, | B,B,, E,=E, F,2- F,/_E,/D,/C,/ | B,, z B,, z F, z B,, z | %19
 _E, z E, z F, z B,, z | F, z F, z F, z F, z | F, z F, z F, z F, z | F, z F, z B, z B, z | %23
 G, z D, z E, z F,F, | B,,2 F,,F, B,,2 F,F,, | B,,G,E,F, B,,B, B,,2 :| %26

